resources/icons/20px/panel.svg

<svg xmlns="http://www.w3.org/2000/svg" viewBox="0 0 20 20">
  <path d="M11 17h6V3h-6zM1 20h18c.55 0 1-.45 1-1V1c0-.55-.45-1-1-1H1C.45 0 0 .45 0 1v18c0 .55.45 1 1 1M2 2h16v16H2z"/>
</svg>

<svg xmlns="http://www.w3.org/2000/svg" viewBox="0 0 20 20">
<path d="M11 17L17 17L17 3L11 3L11 17ZM1 20L19 20C19.55 20 20 19.55 20 19L20 1C20 0.45 19.55 -3.93403e-08 19 -8.74228e-08L1 -1.66103e-06C0.450002 -1.70912e-06 1.70911e-06 0.449998 1.66103e-06 0.999998L8.74219e-08 19C3.93393e-08 19.55 0.45 20 1 20ZM2 2L18 2L18 18L2 18L2 2Z" fill="#000000"/>
</svg>
